svg/u1f3dc.svg

<svg viewBox="0 0 128 128" xmlns="http://www.w3.org/2000/svg">
  <radialGradient id="SVGID_1_" cx="27.5061" cy="32.2438" gradientTransform="matrix(1 5.494423e-03 -3.867986e-03 0.704 0.1251 9.3939)" gradientUnits="userSpaceOnUse" r="59.8358">
    <stop offset="0.3342" stop-color="#FFF7CF"/>
    <stop offset="1" stop-color="#FFDFA7"/>
  </radialGradient>
  <path d="M116.62,124.26H11.32c-4.15,0-7.52-3.37-7.52-7.52V11.44c0-4.15,3.37-7.52,7.52-7.52h105.3 c4.15,0,7.52,3.37,7.52,7.52v105.3C124.15,120.89,120.78,124.26,116.62,124.26z" fill="url(#SVGID_1_)"/>
  <path d="M124.15,82.73v34.01c0,4.15-3.37,7.52-7.52,7.52H11.32c-4.15,0-7.52-3.37-7.52-7.52V79.98 L124.15,82.73z" fill="#F8AB59"/>
  <path d="M124.15,106.09v10.65c0,4.15-3.37,7.52-7.52,7.52H78.46c0,0-10.16-3.56-12.91-3.97 s-15.16-2.44-15.67-4.38s16.99-3.87,20.35-4.17c3.36-0.31,25.03-2.65,26.66-3.05c1.63-0.41,6-1.83,10.99-2.14 C112.87,106.25,124.15,106.09,124.15,106.09z" fill="#F08846"/>
  <path d="M92.82,124.26h23.8c4.15,0,7.52-3.37,7.52-7.52v-2.35c0,0-19.24-1.78-24.63-2.11 c-5.39-0.33-18.39-0.47-17.47,4.57C82.7,120.45,92.82,124.26,92.82,124.26z" fill="#C76933"/>
  <polygon points="87.14,83.53 124.14,84.21 124.15,80.93 86.56,80.55 " fill="#EF8848"/>
  <path d="M3.79,89.72c0,0,12.7,0.27,15.59,0.66c2.89,0.39,7.42,0.78,9.83,0.68s16.87-1.45,22.36-1.84 s10.22,0.77,11.57,0.87c1.35,0.1,4.63,1.16,3.76,1.73s-6.26,2.31-9.54,2.41s-9.25,1.16-13.49,1.45s-16.68,0.82-22.76,1.01 S3.8,96.36,3.8,96.36L3.79,89.72z" fill="#EF8848"/>
  <path d="M16.98,105.12c-0.52,0.93,4.14,2.12,11.57,2.31c7.42,0.19,13.78-1.25,14.07-2.7 c0.29-1.45-9.27-2.58-13.22-2.58C25.12,102.15,17.94,103.39,16.98,105.12z" fill="#EF8848"/>
  <path d="M124.14,87.98c0,0-2.78,0.37-5,1.24s-6.75,1.83-6.65,2.41s4.24,1.54,6.26,2.12s5.4,0.61,5.4,0.61 L124.14,87.98z" fill="#EF8848"/>
  <path d="M3.8,76.14l0.01,7.21c0,0,12.11,0.96,19.92,1.15s27.37-0.58,27.37-0.58s-6.94-8.87-7.33-9.06 S31.16,64.58,29.71,64.58c-1.45,0-2.81,1.41-4.45,1.89c-1.64,0.48-8,3.08-10.79,4.43c-2.8,1.35-4.53,3.08-6.46,3.76 C6.08,75.34,3.8,76.14,3.8,76.14z" fill="#EF8848"/>
  <path d="M31.82,71.77c2.81,3.65,6.07,4.53,8,6.36c1.93,1.83,8.39,5.98,8.39,5.98l45.68-0.29 c0,0-4.63-6.17-9.35-7.13s-8-0.29-8-0.29s-7.13-0.77-12.14-1.93c-5.01-1.16-9.06-2.31-13.01-2.8s-10.6-2.31-13.4-3.57 c-2.8-1.25-8-3.47-8-3.47s0.19,1.35,0.58,2.51C30.95,68.3,29.89,69.27,31.82,71.77z" fill="#C76831"/>
  <path d="M15.64,31.6c-0.2,8.25,5.82,12.47,12.44,12.78c5.13,0.24,12.02-3.56,12.17-11.77 c0.15-8.25-4.96-12.53-11.97-12.98C22.33,19.25,15.83,23.96,15.64,31.6z" fill="#FFCA29"/>
  <path d="M72.9,56.1c-3.47,0.18-7.3,2.95-7.59,9.22c-0.16,3.55,0.83,8.97,0.9,10.03 c0.16,2.53,0.16,10.24,1.64,13.99c1.58,4.02,3.42,5.92,5.06,6.79c1.64,0.87,11.87,5.98,11.87,5.98s0.58,9.74,0.68,11.67 c0.1,1.93,2.99,4.15,8.1,3.67c5.11-0.48,7.43-13.02,7.43-13.6c0-0.58,0.39-16.3,0.39-16.3s7.04,2.12,10.42-1.54 c3.38-3.67,8.3-26.34,7.24-29.33s-3.67-4.82-6.37-4.63c-2.7,0.19-5.11,1.64-5.79,5.98s0.39,11.29,0.39,13.12s-0.48,5.79-2.32,6.37 c-1.83,0.58-3.47-0.29-3.47-0.29s1.68-32.12,0.81-35.49c-0.87-3.38-4.38-6.57-9.3-6.09s-9.39,3.82-10.06,11.73 s0.51,11.13,0.61,15.76s0.77,26.82,0.77,26.82s-4.92,2.6-5.79-1.93c-0.87-4.53,2.22-23.54,1.25-26.53S76.66,55.91,72.9,56.1z" fill="#8BC12D"/>
  <path d="M74.97,59.51c-0.21,0.16,0.05,13.28,0.24,17.72c0.19,4.44,0.39,11.58,4.05,14.76 c2.81,2.44,5.06,1.88,5.06,1.88l-0.06-5.55c0,0-1.72,0-3.16-1.35c-1.9-1.77-1.74-7.52-1.35-11c0.39-3.47,0.77-10.13,0.39-13.22 C79.75,59.67,77.66,57.4,74.97,59.51z" fill="#418C1D"/>
  <path d="M79.75,98.86c-0.2,0-0.39-0.07-0.55-0.22c-0.2-0.19-4.98-4.72-6.52-7.53 c-2.32-4.23-2.32-10.06-2.32-12.25c0-1.06-0.13-2.43-0.28-4.01c-0.14-1.54-0.3-3.28-0.4-5.21c-0.2-4.04,0.47-6.43,1.06-8.08 c0.15-0.42,0.6-1.33,1.02-1.22c0.43,0.12,0.44,1.1,0.34,1.53c-0.28,1.22-0.92,3.68-0.74,7.46c0.09,1.9,0.18,3.86,0.32,5.38 c0.15,1.62,0.28,3.03,0.28,4.16c0,2.08,0.36,7.61,2.48,11.48c1.41,2.58,6.18,6.92,6.23,6.97c0.32,0.3-0.04,0.98-0.34,1.3 C80.17,98.78,79.96,98.86,79.75,98.86z" fill="#5F9A22"/>
  <path d="M102.03,82.17c-0.41,0-0.76-0.32-0.8-0.74c-0.03-0.44,0.3-0.82,0.74-0.86 c0.05,0,4.21,0.14,6.29-1.68c1.54-1.34,2.12-5.66,2.06-8.71c-0.02-0.93-0.04-1.83-0.02-2.63c0.09-3.6-0.04-9.13-0.05-9.2 c-0.02-0.44-0.37-2.46,0.49-2.53c0.45-0.03,0.77,0.63,0.92,1.36c0.41,1.96,0.32,6.76,0.23,10.41c-0.02,0.78,0,1.65,0.02,2.55 c0.08,3.55-0.3,8.37-2.4,10.2c-2.49,2.18-7.21,1.8-7.43,1.82C102.07,82.17,102.05,82.17,102.03,82.17z" fill="#5F9A22"/>
  <path d="M89.59,116.43c-0.53,0-0.52-0.71-1-0.95c-0.71-0.35-0.89-17.46-1.08-25.01 c-0.12-4.7-0.37-11.89-0.6-17.89c-0.14-3.68-0.37-7.07-0.45-9.35c-0.03-0.94-0.15-2.26-0.18-3.21c-0.19-5.21-0.19-9.73,0.4-13.16 c0.69-4.06,1.27-5.09,1.95-6.32c0.76-1.38,1.85-2.16,2.34-1.91c0.49,0.25-0.12,1.29-0.43,2.4c-0.31,1.11-0.84,2.23-1.48,5.98 c-0.55,3.23-0.77,8.46-0.59,13.33c0.04,0.95,0.07,1.91,0.1,2.86c0.07,2.28,0.41,5.47,0.55,9.14c0.23,6,0.43,13.28,0.55,18 c0.19,7.52,0.91,24.85,0.92,25.03c0.03,0.55-0.4,1.02-0.95,1.05C89.62,116.43,89.6,116.43,89.59,116.43z" fill="#5F9A22"/>
  <path d="M94.51,115.37c-0.54,0-1.38-0.8-1.39-1.35c0-0.28-0.09-27.19-0.09-31.97 c0-3.15-0.38-9.85-0.52-16.05c-0.07-3.21-0.11-8.03-0.18-9.92c-0.31-7.46,0.31-11.28,0.62-13.87c0.07-0.55,0.43-3.76,1.35-3.51 c0.78,0.22,0.63,1.29,0.57,3.14c-0.06,1.73-0.4,10.39-0.3,15.79c0.03,1.89,0.1,4.81,0.17,8.01c0.14,6.21,0.31,13.24,0.31,16.42 c0,4.76,0.48,32.03,0.48,32.3c0.01,0.55-0.43,1.01-0.98,1.02C94.52,115.37,94.51,115.37,94.51,115.37z" fill="#5F9A22"/>
  <path d="M84.55,97.25l0.23,5.52c0,0-4.32-0.29-7.69-2.18c-4.38-2.47-6.85-6.11-7.71-8.07 c-0.23-0.52,5.55,2.4,8.63,3.51C81.1,97.13,84.55,97.25,84.55,97.25z" fill="#418C1D"/>
  <path d="M85.43,113.22c0,0.88-0.03,3.9,0.62,4.94c0.9,1.44,1.89,1.48,4.03,1.79 c2.05,0.29,7.14,0.19,9.03-0.31c1.31-0.36,2.65-1.85,2.9-3.82c0.25-1.97,0.09-13,0.17-16.64c0.07-3.64,0.03-7.91,0.03-7.91 s5.87-0.07,10.49-3.64s6.4-10.63,6.92-14.72s0.57-15.13-1.04-17.21c-1.15-1.48-3.33-0.86-3.28,1.08c0.03,1.04,0.3,12.72-0.67,17.62 c-0.97,4.91-1.78,7.58-4.83,9.52c-3.05,1.93-7.51,1.64-7.51,1.64s0.3-19.19,0.82-26.18s1.04-15.24-1.26-19.19 c-2.27-3.88-4.71-3.34-4.6-1.6c0.03,0.45,0.94,2.22,1.26,6.35c0.3,3.93,0.74,12.2,0.51,18.67c-0.22,6.47-0.97,17.92-1.12,28.56 c-0.15,10.63,1.94,19.61-2.39,21.5C92.18,115.09,85.43,113.22,85.43,113.22z" fill="#378016"/>
</svg>

<svg viewBox="0 0 128 128" xmlns="http://www.w3.org/2000/svg">
  <defs>
    <radialGradient id="SVGID_1_" cx="27.682808" cy="45.586029" gradientTransform="matrix(1 0.005494 -0.003868 0.704 0 0)" gradientUnits="userSpaceOnUse" r="59.8358">
      <stop offset="0.3342" stop-color="#FFF7CF"/>
      <stop offset="1" stop-color="#FFDFA7"/>
    </radialGradient>
  </defs>
  <path d="M116.62,124.26 L11.32,124.26 C7.17,124.26 3.8,120.89 3.8,116.74 L3.8,11.44 C3.8,7.29 7.17,3.92 11.32,3.92 L116.62,3.92 C120.77,3.92 124.14,7.29 124.14,11.44 L124.14,116.74 C124.15,120.89 120.78,124.26 116.62,124.26 Z" fill="url(#SVGID_1_)"/>
  <path d="M124.15,82.73 L124.15,116.74 C124.15,120.89 120.78,124.26 116.63,124.26 L11.32,124.26 C7.17,124.26 3.8,120.89 3.8,116.74 L3.8,79.98 L124.15,82.73 Z" fill="#F8AB59"/>
  <path d="M124.15,106.09 L124.15,116.74 C124.15,120.89 120.78,124.26 116.63,124.26 L78.46,124.26 C78.46,124.26 68.3,120.7 65.55,120.29 C62.8,119.88 50.39,117.85 49.88,115.91 C49.37,113.97 66.87,112.04 70.23,111.74 C73.59,111.43 95.26,109.09 96.89,108.69 C98.52,108.28 102.89,106.86 107.88,106.55 C112.87,106.25 124.15,106.09 124.15,106.09 Z" fill="#F08846"/>
  <path d="M92.82,124.26 L116.62,124.26 C120.77,124.26 124.14,120.89 124.14,116.74 L124.14,114.39 C124.14,114.39 104.9,112.61 99.51,112.28 C94.12,111.95 81.12,111.81 82.04,116.85 C82.7,120.45 92.82,124.26 92.82,124.26 Z" fill="#C76933"/>
  <path d="M87.14,83.53 L124.14,84.21 L124.15,80.93 L86.56,80.55 Z" fill="#EF8848"/>
  <path d="M3.79,89.72 C3.79,89.72 16.49,89.99 19.38,90.38 C22.27,90.77 26.8,91.16 29.21,91.06 C31.62,90.96 46.08,89.61 51.57,89.22 C57.06,88.83 61.79,89.99 63.14,90.09 C64.49,90.19 67.77,91.25 66.9,91.82 C66.03,92.39 60.64,94.13 57.36,94.23 C54.08,94.33 48.11,95.39 43.87,95.68 C39.63,95.97 27.19,96.5 21.11,96.69 C15.03,96.88 3.8,96.36 3.8,96.36 L3.79,89.72 Z" fill="#EF8848"/>
  <path d="M16.98,105.12 C16.46,106.05 21.12,107.24 28.55,107.43 C35.97,107.62 42.33,106.18 42.62,104.73 C42.91,103.28 33.35,102.15 29.4,102.15 C25.12,102.15 17.94,103.39 16.98,105.12 Z" fill="#EF8848"/>
  <path d="M124.14,87.98 C124.14,87.98 121.36,88.35 119.14,89.22 C116.92,90.09 112.39,91.05 112.49,91.63 C112.59,92.21 116.73,93.17 118.75,93.75 C120.77,94.33 124.15,94.36 124.15,94.36 L124.14,87.98 Z" fill="#EF8848"/>
  <path d="M3.8,76.14 L3.81,83.35 C3.81,83.35 15.92,84.31 23.73,84.5 C31.54,84.69 51.1,83.92 51.1,83.92 C51.1,83.92 44.16,75.05 43.77,74.86 C43.38,74.67 31.16,64.58 29.71,64.58 C28.26,64.58 26.9,65.99 25.26,66.47 C23.62,66.95 17.26,69.55 14.47,70.9 C11.67,72.25 9.94,73.98 8.01,74.66 C6.08,75.34 3.8,76.14 3.8,76.14 Z" fill="#EF8848"/>
  <path d="M31.82,71.77 C34.63,75.42 37.89,76.3 39.82,78.13 C41.75,79.96 48.21,84.11 48.21,84.11 L93.89,83.82 C93.89,83.82 89.26,77.65 84.54,76.69 C79.82,75.73 76.54,76.4 76.54,76.4 C76.54,76.4 69.41,75.63 64.4,74.47 C59.39,73.31 55.34,72.16 51.39,71.67 C47.44,71.18 40.79,69.36 37.99,68.1 C35.19,66.85 29.99,64.63 29.99,64.63 C29.99,64.63 30.18,65.98 30.57,67.14 C30.95,68.3 29.89,69.27 31.82,71.77 Z" fill="#C76831"/>
  <path d="M15.64,31.6 C15.44,39.85 21.46,44.07 28.08,44.38 C33.21,44.62 40.1,40.82 40.25,32.61 C40.4,24.36 35.29,20.08 28.28,19.63 C22.33,19.25 15.83,23.96 15.64,31.6 Z" fill="#FFCA29"/>
  <path d="M72.9,56.1 C69.43,56.28 65.6,59.05 65.31,65.32 C65.15,68.87 66.14,74.29 66.21,75.35 C66.37,77.88 66.37,85.59 67.85,89.34 C69.43,93.36 71.27,95.26 72.91,96.13 C74.55,97 84.78,102.11 84.78,102.11 C84.78,102.11 85.36,111.85 85.46,113.78 C85.56,115.71 88.45,117.93 93.56,117.45 C98.67,116.97 100.99,104.43 100.99,103.85 C100.99,103.27 101.38,87.55 101.38,87.55 C101.38,87.55 108.42,89.67 111.8,86.01 C115.18,82.34 120.1,59.67 119.04,56.68 C117.98,53.69 115.37,51.86 112.67,52.05 C109.97,52.24 107.56,53.69 106.88,58.03 C106.2,62.37 107.27,69.32 107.27,71.15 C107.27,72.98 106.79,76.94 104.95,77.52 C103.12,78.1 101.48,77.23 101.48,77.23 C101.48,77.23 103.16,45.11 102.29,41.74 C101.42,38.36 97.91,35.17 92.99,35.65 C88.07,36.13 83.6,39.47 82.93,47.38 C82.26,55.29 83.44,58.51 83.54,63.14 C83.64,67.77 84.31,89.96 84.31,89.96 C84.31,89.96 79.39,92.56 78.52,88.03 C77.65,83.5 80.74,64.49 79.77,61.5 C78.8,58.51 76.66,55.91 72.9,56.1 Z" fill="#8BC12D"/>
  <path d="M74.97,59.51 C74.76,59.67 75.02,72.79 75.21,77.23 C75.4,81.67 75.6,88.81 79.26,91.99 C82.07,94.43 84.32,93.87 84.32,93.87 L84.26,88.32 C84.26,88.32 82.54,88.32 81.1,86.97 C79.2,85.2 79.36,79.45 79.75,75.97 C80.14,72.5 80.52,65.84 80.14,62.75 C79.75,59.67 77.66,57.4 74.97,59.51 Z" fill="#418C1D"/>
  <path d="M79.75,98.86 C79.55,98.86 79.36,98.79 79.2,98.64 C79,98.45 74.22,93.92 72.68,91.11 C70.36,86.88 70.36,81.05 70.36,78.86 C70.36,77.8 70.23,76.43 70.08,74.85 C69.94,73.31 69.78,71.57 69.68,69.64 C69.48,65.6 70.15,63.21 70.74,61.56 C70.89,61.14 71.34,60.23 71.76,60.34 C72.19,60.46 72.2,61.44 72.1,61.87 C71.82,63.09 71.18,65.55 71.36,69.33 C71.45,71.23 71.54,73.19 71.68,74.71 C71.83,76.33 71.96,77.74 71.96,78.87 C71.96,80.95 72.32,86.48 74.44,90.35 C75.85,92.93 80.62,97.27 80.67,97.32 C80.99,97.62 80.63,98.3 80.33,98.62 C80.17,98.78 79.96,98.86 79.75,98.86 Z" fill="#5F9A22"/>
  <path d="M102.03,82.17 C101.62,82.17 101.27,81.85 101.23,81.43 C101.2,80.99 101.53,80.61 101.97,80.57 C102.02,80.57 106.18,80.71 108.26,78.89 C109.8,77.55 110.38,73.23 110.32,70.18 C110.3,69.25 110.28,68.35 110.3,67.55 C110.39,63.95 110.26,58.42 110.25,58.35 C110.23,57.91 109.88,55.89 110.74,55.82 C111.19,55.79 111.51,56.45 111.66,57.18 C112.07,59.14 111.98,63.94 111.89,67.59 C111.87,68.37 111.89,69.24 111.91,70.14 C111.99,73.69 111.61,78.51 109.51,80.34 C107.02,82.52 102.3,82.14 102.08,82.16 C102.07,82.17 102.05,82.17 102.03,82.17 Z" fill="#5F9A22"/>
  <path d="M89.59,116.43 C89.06,116.43 89.07,115.72 88.59,115.48 C87.88,115.13 87.7,98.02 87.51,90.47 C87.39,85.77 87.14,78.58 86.91,72.58 C86.77,68.9 86.54,65.51 86.46,63.23 C86.43,62.29 86.31,60.97 86.28,60.02 C86.09,54.81 86.09,50.29 86.68,46.86 C87.37,42.8 87.95,41.77 88.63,40.54 C89.39,39.16 90.48,38.38 90.97,38.63 C91.46,38.88 90.85,39.92 90.54,41.03 C90.23,42.14 89.7,43.26 89.06,47.01 C88.51,50.24 88.29,55.47 88.47,60.34 C88.51,61.29 88.54,62.25 88.57,63.2 C88.64,65.48 88.98,68.67 89.12,72.34 C89.35,78.34 89.55,85.62 89.67,90.34 C89.86,97.86 90.58,115.19 90.59,115.37 C90.62,115.92 90.19,116.39 89.64,116.42 C89.62,116.43 89.6,116.43 89.59,116.43 Z" fill="#5F9A22"/>
  <path d="M94.51,115.37 C93.97,115.37 93.13,114.57 93.12,114.02 C93.12,113.74 93.03,86.83 93.03,82.05 C93.03,78.9 92.65,72.2 92.51,66 C92.44,62.79 92.4,57.97 92.33,56.08 C92.02,48.62 92.64,44.8 92.95,42.21 C93.02,41.66 93.38,38.45 94.3,38.7 C95.08,38.92 94.93,39.99 94.87,41.84 C94.81,43.57 94.47,52.23 94.57,57.63 C94.6,59.52 94.67,62.44 94.74,65.64 C94.88,71.85 95.05,78.88 95.05,82.06 C95.05,86.82 95.53,114.09 95.53,114.36 C95.54,114.91 95.1,115.37 94.55,115.38 C94.52,115.37 94.51,115.37 94.51,115.37 Z" fill="#5F9A22"/>
  <path d="M84.55,97.25 L84.78,102.77 C84.78,102.77 80.46,102.48 77.09,100.59 C72.71,98.12 70.24,94.48 69.38,92.52 C69.15,92 74.93,94.92 78.01,96.03 C81.1,97.13 84.55,97.25 84.55,97.25 Z" fill="#418C1D"/>
  <path d="M85.43,113.22 C85.43,114.1 85.4,117.12 86.05,118.16 C86.95,119.6 87.94,119.64 90.08,119.95 C92.13,120.24 97.22,120.14 99.11,119.64 C100.42,119.28 101.76,117.79 102.01,115.82 C102.26,113.85 102.1,102.82 102.18,99.18 C102.25,95.54 102.21,91.27 102.21,91.27 C102.21,91.27 108.08,91.2 112.7,87.63 C117.32,84.06 119.1,77 119.62,72.91 C120.14,68.82 120.19,57.78 118.58,55.7 C117.43,54.22 115.25,54.84 115.3,56.78 C115.33,57.82 115.6,69.5 114.63,74.4 C113.66,79.31 112.85,81.98 109.8,83.92 C106.75,85.85 102.29,85.56 102.29,85.56 C102.29,85.56 102.59,66.37 103.11,59.38 C103.63,52.39 104.15,44.14 101.85,40.19 C99.58,36.31 97.14,36.85 97.25,38.59 C97.28,39.04 98.19,40.81 98.51,44.94 C98.81,48.87 99.25,57.14 99.02,63.61 C98.8,70.08 98.05,81.53 97.9,92.17 C97.75,102.8 99.84,111.78 95.51,113.67 C92.18,115.09 85.43,113.22 85.43,113.22 Z" fill="#378016"/>
</svg>
